X:1
T:James Gibb editions
T:J'aime bien mon ami - Willaert
T:#
%%score [ 1 2 3 4 ]
L:1/8
Q:1/4=130
M:2/2
K:F
V:1 treble nm="Soprano" snm="S"
V:2 treble nm="Alto" snm="A"
V:3 treble-8 nm="Tenor" snm="T"
V:4 bass nm="Bass" snm="B"
V:1
"^J'aime bien mon ami""^Adrian Willaert\n(1490-1562)" B4 c4 | A4 B4 | G4 (F4- | F4 B4 | A4) z4 | %5
w: J'ai- me|bien mon|a- mi|||
 z2 G2 c2 c2 |[M:2/2] d4 z2 f2 | (edcB A2 d2- | dc c4) B2 | c4 z2 G2 | c4 B4 | A2 (c3 d) (e2- | %12
w: de bon a-|mour, cer-|tai\- * * * * *||ne car|je sais|bien qu'il * m'ai\-|
 ed d4) c2 | (f3 e d2) (c2- | cBAG) A4 | z8 | z4 d4 | (c2 BA B4) | A2 (d4 c2 | A2) (B3 A A2- | %20
w: * * * me,|qu'il * * m'ai\-|* * * * me,||qu'il|m'ai\- * * *|me, qu'il *|* m'ai\- * *|
 A2 G2 A2 c2 | B2 AG A4) | G4 z4 | z4 z2 B2 | c4 A4 | B4 G4 | (F6 B2- | B2 AG A4) | z2 F2 (G3 F || %29
w: ||me,|et|aus- si|fais- je|lui, *||et aus\- *|
[M:3/2] x12 |[M:3/2] G2 A2 (G2 F6- ||[M:4/4] F2 E2) F2 A2 | A2 F2[Q:1/4=129] G2[Q:1/4=128] G2 | %33
w: |* si fais\- *|* je lui, et|aus- si fais- je|
[Q:1/4=126] E3[Q:1/4=125] F[Q:1/4=124]G[Q:1/4=124]A[Q:1/4=123] G2- | %34
w: lui. * * * *|
[Q:1/4=122] G[Q:1/4=122]F[Q:1/4=120] F4[Q:1/4=119] E2 |[Q:1/4=114] F16) |] %36
w: ||
V:2
 z8 | z8 | E4 F4 | D4 E4 | C4 (B,4- | B,4 E4 |[M:2/2] D4 z4 | z2 C2 F2 F2 | G4 z2 B2 | %9
w: ||J'ai- me|bien mon|a- mi|||de bon a-|mour, cer-|
 (AGFE D2 G2- | GF F4 F2) | F4 z2 C2 | F4 E4 | D2 F3 G) (A2- | AG G4) F2 | (B3 A G2) (F2- | %16
w: tai\- * * * * *||ne car|je sais|bien qu'il * m'ai\-|* * * me,|qu'il * * m'ai\-|
 FEDC) D4 | z8 | z4 G4 | (F2 ED E4) | D2 (G4 F2 | D2) (E3 D D2- | D2 C2 D2 F2 | E2 DC D4) | C4 z4 | %25
w: * * * * me,||qu'il|m'ai\- * * *|me, qu'il *|* m'ai\- * *|||me,|
 z4 z2 E2 | F4 D4 | E4 C4 | (B,6- E2- ||[M:3/2] x12 |[M:3/2] E6 DC) D4 ||[M:4/4] z2 B,2 (C3 B, | %32
w: et|aus- si|fais- je|lui, *|||et aus\- *|
 C2) D2 (C2 B,2- | B,2) A,2 B,2 D2 | D2 B,2 C2 C2 | A,16 |] %36
w: * si fais\- *|* je lui, et|aus- si fais- je|lui.|
V:3
 z8 | z4 B4 | c4 A4 | B4 G4 | F8 | z8 |[M:2/2][K:treble-8] z4 F4 | c2 c2 d2 f2 | (e2 dc d4) | %9
w: |J'ai-|me bien|mon a-|mi||de|bon a- mour, cer-|tai\- * * *|
 c4 z4 | z8 | z8 | z8 | d4 f4 | e4 d4 | z4 d4 | (c2 BA B4) | A4 z4 | z8 | d4 (c2 BA | B4) A4 | %21
w: ne||||car je|sais bien|qu'il|m'ai\- * * *|me,||qu'il m'ai\- * *|* me,|
 z2 B2 (c2 d2) | (G4 A4) | z8 | z8 | B4 c4 | A4 B4 | G4 F4 | z4 z2 c2 ||[M:3/2] x12 | %30
w: qu'il m'ai\- *|me, *|||et aus-|si fais-|je lui,|et||
[M:3/2][K:treble-8] (c4 A4) (B3 A ||[M:4/4] G4 (F3) G | A4) G4 | (c4 d2 B2- | BAGF G4 | F16) |] %36
w: aus\- * si *|* fais\- *|* je|lui. * *|||
V:4
 z8 | z8 | z8 | z4 E,4 | F,4 D,4 | E,4 C,4 |[M:2/2] B,,8 | z8 | z4 B,,4 | F,2 F,2 G,2 B,2 | %10
w: |||J'ai-|me bien|mon a-|mi||de|bon a- mour, cer-|
 (A,2 G,F, G,4) | F,4 z4 | z8 | z8 | z8 | G,4 B,4 | A,4 G,4 | z4 G,4 | (F,2 E,D, E,4) | D,4 z4 | %20
w: tai\- * * *|ne||||car je|sais bien|qu'il|m'ai\- * * *|me,|
 z8 | G,4 (F,2 E,D, | E,4 D,4 | z2 E,2 (F,2 G,2) | C,4 D,4) | z8 | z8 | E,4 F,4 | D,4 E,4 || %29
w: |qu'il m'ai\- * *|* me,|qu'il m'ai\- *|me, *|||et aus-|si fais-|
[M:3/2] x12 |[M:3/2] C,8 B,,4 ||[M:4/4] z4 z2 F,2 | (F,2 D,2) (E,3 D, | C,4) (B,,3 C, | D,4) C,4 | %35
w: |je lui,|et|aus\- * si *|* fais\- *|* je|
 F,16 |] %36
w: lui.|

